assets/img/braze_icons/expand-06.svg

<svg fill="none" height="24" viewBox="0 0 24 24" width="24" xmlns="http://www.w3.org/2000/svg"><g fill="#801ed7"><path d="m8 4h-2.58579l3.2929 3.29289c.39052.39053.39052 1.02369 0 1.41422-.39053.39052-1.02369.39052-1.41422 0l-3.29289-3.2929v2.58579c0 .55228-.44772 1-1 1s-1-.44772-1-1v-5c0-.26522.10536-.51957.29289-.70711.18754-.18753.44189-.29289.70711-.29289h5c.55228 0 1 .44772 1 1s-.44772 1-1 1z"/><path d="m15 3c0-.55228.4477-1 1-1h5c.5523 0 1 .44772 1 1v5c0 .55228-.4477 1-1 1s-1-.44772-1-1v-2.58579l-3.2929 3.2929c-.3905.39052-1.0237.39052-1.4142 0-.3905-.39053-.3905-1.02369 0-1.41422l3.2929-3.29289h-2.5858c-.5523 0-1-.44772-1-1z"/><path d="m8.70711 16.7071-3.2929 3.2929h2.58579c.55228 0 1 .4477 1 1s-.44772 1-1 1h-5c-.55228 0-1-.4477-1-1v-5c0-.5523.44772-1 1-1 .55229 0 1 .4477 1 1v2.5858l3.29289-3.2929c.39053-.3905 1.02369-.3905 1.41422 0 .39052.3905.39052 1.0237 0 1.4142z"/><path d="m20 18.5858v-2.5858c0-.5523.4477-1 1-1s1 .4477 1 1v5c0 .2652-.1054.5196-.2929.7071s-.4419.2929-.7071.2929h-5c-.5523 0-1-.4477-1-1s.4477-1 1-1h2.5858l-3.2929-3.2929c-.3905-.3905-.3905-1.0237 0-1.4142s1.0237-.3905 1.4142 0z"/></g></svg>

<svg width="24" height="24" viewBox="0 0 24 24" fill="none" xmlns="http://www.w3.org/2000/svg">
<path d="M8 4L5.41421 4L8.70711 7.29289C9.09763 7.68342 9.09763 8.31658 8.70711 8.70711C8.31658 9.09763 7.68342 9.09763 7.29289 8.70711L4 5.41421L4 8C4 8.55228 3.55228 9 3 9C2.44772 9 2 8.55228 2 8V3C2 2.73478 2.10536 2.48043 2.29289 2.29289C2.48043 2.10536 2.73478 2 3 2H8C8.55228 2 9 2.44772 9 3C9 3.55228 8.55228 4 8 4Z" fill="#801ED7"/>
<path d="M15 3C15 2.44772 15.4477 2 16 2H21C21.5523 2 22 2.44772 22 3V8C22 8.55228 21.5523 9 21 9C20.4477 9 20 8.55228 20 8V5.41421L16.7071 8.70711C16.3166 9.09763 15.6834 9.09763 15.2929 8.70711C14.9024 8.31658 14.9024 7.68342 15.2929 7.29289L18.5858 4H16C15.4477 4 15 3.55228 15 3Z" fill="#801ED7"/>
<path d="M8.70711 16.7071L5.41421 20H8C8.55228 20 9 20.4477 9 21C9 21.5523 8.55228 22 8 22H3C2.44772 22 2 21.5523 2 21V16C2 15.4477 2.44772 15 3 15C3.55229 15 4 15.4477 4 16L4 18.5858L7.29289 15.2929C7.68342 14.9024 8.31658 14.9024 8.70711 15.2929C9.09763 15.6834 9.09763 16.3166 8.70711 16.7071Z" fill="#801ED7"/>
<path d="M20 18.5858V16C20 15.4477 20.4477 15 21 15C21.5523 15 22 15.4477 22 16V21C22 21.2652 21.8946 21.5196 21.7071 21.7071C21.5196 21.8946 21.2652 22 21 22H16C15.4477 22 15 21.5523 15 21C15 20.4477 15.4477 20 16 20H18.5858L15.2929 16.7071C14.9024 16.3166 14.9024 15.6834 15.2929 15.2929C15.6834 14.9024 16.3166 14.9024 16.7071 15.2929L20 18.5858Z" fill="#801ED7"/>
</svg>
